X:4113
T:Mazurka-valse - Les Valcerves 2 (M. Perrone)
O:england
C:Trad 3, 48
M:3/4
L:1/8
K:C
e2 c2A2|^F2AF Ac|BA Bc dB|c2Bc Ac|\
e2 c2A2|^F2AF Ac|BA Bd Bc|A6:|\
A>G E>G D>C|D>C D>F E>D|E>F E>D C>B,|C2A,4|\
A>G E>G D>C|D>C D>F E>D|(3E^DE (3^F^EF (3^GFG|A2A4:|
P:Var
e2 (3cec (3AcA|^F2AF Ac|BA Bc dB|(3cdc (3BcB (3ABc|\
e2 c2A2|^F2AF Ac|BA Bd Bc|AE AB cd|


